X: 14465
T: Gammal Polska Från Tusby
R: waltz
M: 3/4
K: Gmajor
G,>G, G,G, B,2|G,/A,/B,/C/ DD/E/ D2|GA/B/ c>B AG|F/E/F/E/ DC B,A,|
G,>G, G,G, B,2|G,/A,/B,/C/ DD/E/ D2|GA/B/ c>B AG|F/E/F/A/ G3||
|:A|B>G GG Bc/B/|A>G FE D2|E>C CC EE|D/E/D/C/ B,C D2|
D>D GA Bc/B/|AG/F/ G3:|

